X:1
T:Polska fr Lnsboda
S:Omtyckta Sknska Allspelsltar
R:Polska
Z:Patrik Mnsson, 2008-11-24
M:3/4
L:1/8
K:Gm
|: D>^F G2 A2 | B>d c2 d2 | G>A B2 (d>c) | A2 G>^F D2 | D>^F G2 A2 |
B>d c2 d2 | G>A B2 (d>c) | A2 G4 :: (3d(ed) (3c(dc) (3B(cB) | A>c A2 G2 |
G>A B2 (d>c) | A2 G>^F D2 | (3d(ed) (3c(dc) (3B(cB) | A>c A2 G2 | D2 ^F2 (3FGF | G2 G4 :|
